gama.ui.shared/icons_svg/dark/editor/lexical.sort.svg

<svg height="24.75" viewBox="-671.512 -3263.829 24.75 24.75" width="24.75" xmlns="http://www.w3.org/2000/svg"><g fill="none"><circle cx="-659.137" cy="-3251.454" fill="#666" r="8"/><circle cx="-659.137" cy="-3251.454" r="8"/><circle cx="-659.137" cy="-3251.454" fill="#666" r="8"/><circle cx="-659.137" cy="-3251.454" r="8"/><path d="m-659.1373-3243.3806c-4.4183 0-8-3.5818-8-8 0-4.4184 3.5817-8 8-8 4.41824 0 7.99996 3.5816 7.99996 8 0 4.4182-3.58172 8-7.99996 8zm0-.8c3.9764 0 7.19996-3.2236 7.19996-7.2s-3.22356-7.2-7.19996-7.2c-3.9765 0-7.2 3.2236-7.2 7.2s3.2235 7.2 7.2 7.2zm-4.4-8.8c-.22095 0-.4-.1791-.4-.4 0-.221.17905-.4.4-.4h8.8c.2209 0 .4.179.4.4 0 .2209-.1791.4-.4.4zm1.6 2.4c-.22095 0-.4-.1791-.4-.4 0-.221.17905-.4.4-.4h5.6c.2209 0 .4.179.4.4 0 .2209-.1791.4-.4.4zm1.6 2.4c-.22095 0-.4-.1791-.4-.4 0-.221.17905-.4.4-.4h2.4c.2209 0 .4.179.4.4 0 .2209-.1791.4-.4.4z" fill="#c0e0ff"/></g></svg>

<?xml version="1.0" encoding="UTF-8" standalone="no"?>
<!DOCTYPE svg PUBLIC "-//W3C//DTD SVG 1.1//EN" "http://www.w3.org/Graphics/SVG/1.1/DTD/svg11.dtd">
<svg xmlns="http://www.w3.org/2000/svg" xmlns:dc="http://purl.org/dc/elements/1.1/" version="1.1" xmlns:xl="http://www.w3.org/1999/xlink" viewBox="-671.5123 -3263.8294 24.75 24.75" width="24.75" height="24.75">
  <defs/>
  <g id="SOURCES" stroke-dasharray="none" stroke-opacity="1" stroke="none" fill="none" fill-opacity="1">
    <title>SOURCES</title>
    <g id="SOURCES_Dark">
      <title>Dark</title>
      <g id="Group_12252">
        <g id="Group_12254">
          <g id="Graphic_12257">
            <circle cx="-659.1373" cy="-3251.4544" r="8.00000702080164" fill="#666"/>
            <circle cx="-659.1373" cy="-3251.4544" r="8.00000702080164" stroke="black" stroke-linecap="round" stroke-linejoin="round" stroke-width="0"/>
          </g>
          <g id="Graphic_12256"/>
          <g id="Graphic_12255">
            <circle cx="-659.1373" cy="-3251.4544" r="8.00000702080164" fill="#666"/>
            <circle cx="-659.1373" cy="-3251.4544" r="8.00000702080164" stroke="black" stroke-linecap="round" stroke-linejoin="round" stroke-width="0"/>
          </g>
        </g>
        <g id="Graphic_12253">
          <path d="M -659.1373 -3243.3806 C -663.5556 -3243.3806 -667.1373 -3246.9624 -667.1373 -3251.3806 C -667.1373 -3255.799 -663.5556 -3259.3806 -659.1373 -3259.3806 C -654.71906 -3259.3806 -651.13734 -3255.799 -651.13734 -3251.3806 C -651.13734 -3246.9624 -654.71906 -3243.3806 -659.1373 -3243.3806 Z M -659.1373 -3244.1806 C -655.1609 -3244.1806 -651.93734 -3247.4042 -651.93734 -3251.3806 C -651.93734 -3255.357 -655.1609 -3258.5806 -659.1373 -3258.5806 C -663.1138 -3258.5806 -666.3373 -3255.357 -666.3373 -3251.3806 C -666.3373 -3247.4042 -663.1138 -3244.1806 -659.1373 -3244.1806 Z M -663.5373 -3252.9806 C -663.75825 -3252.9806 -663.9373 -3253.1597 -663.9373 -3253.3806 C -663.9373 -3253.6016 -663.75825 -3253.7806 -663.5373 -3253.7806 L -654.7373 -3253.7806 C -654.5164 -3253.7806 -654.3373 -3253.6016 -654.3373 -3253.3806 C -654.3373 -3253.1597 -654.5164 -3252.9806 -654.7373 -3252.9806 Z M -661.9373 -3250.5806 C -662.15825 -3250.5806 -662.3373 -3250.7597 -662.3373 -3250.9806 C -662.3373 -3251.2016 -662.15825 -3251.3806 -661.9373 -3251.3806 L -656.3373 -3251.3806 C -656.1164 -3251.3806 -655.9373 -3251.2016 -655.9373 -3250.9806 C -655.9373 -3250.7597 -656.1164 -3250.5806 -656.3373 -3250.5806 Z M -660.3373 -3248.1806 C -660.55825 -3248.1806 -660.7373 -3248.3597 -660.7373 -3248.5806 C -660.7373 -3248.8016 -660.55825 -3248.9806 -660.3373 -3248.9806 L -657.9373 -3248.9806 C -657.7164 -3248.9806 -657.5373 -3248.8016 -657.5373 -3248.5806 C -657.5373 -3248.3597 -657.7164 -3248.1806 -657.9373 -3248.1806 Z" fill="#c0e0ff"/>
        </g>
      </g>
    </g>
  </g>
</svg>
